Papirus/22x22/apps/enteauth.svg

<svg width="22" height="22" version="1.1" xmlns="http://www.w3.org/2000/svg">
 <rect x="1" y="1.5" width="19.999989" height="19.999989" ry="4.1533189" style="opacity:.2"/>
 <rect x="1" y="1" width="19.999989" height="19.999989" ry="4.1533189" style="fill:#af47e5"/>
 <path d="m4.00001 6.64658 3.47915-1.51241c1.91355-0.83184 3.48064-1.51229 3.52084-1.51217 0.0403 1.8e-4 1.6562 0.68652 3.5524 1.51217l3.4476 1.51241v5.41112c0 5.257-5.6979 8.035-7 8.035-1.30209 0-6.99999-2.9678-6.99999-8.035z" style="fill-rule:evenodd;opacity:.2"/>
 <path d="m4.00001 6.14639 3.47915-1.51241c1.91355-0.83183 3.48064-1.51229 3.52084-1.51217 0.0403 1.8e-4 1.6562 0.68652 3.5524 1.51217l3.4476 1.51241v5.41111c0 5.2571-5.6979 8.035-7 8.035-1.30209 0-6.99999-2.9678-6.99999-8.035z" style="fill-rule:evenodd;fill:#ececec"/>
 <path d="m8.82594 15.3c-0.53272-0.0091-0.82575-0.5498-0.82575-0.7953v-3.254c0-0.334 0.20793-0.9507 0.99963-0.9507v-1.8333c-0.01755-0.66847 0.85529-1.1667 2.00038-1.1667 1.1451 0 1.9996 0.43759 1.9996 1.1667v1.8333c0.8758 0 1 0.6378 1 0.9507v3.254c0 0.3991-0.3714 0.8043-0.8784 0.7951zm3.17386-5v-1.102c0-0.62747-0.3568-0.89105-0.9996-0.89801-0.6428-0.00707-1.00039 0.22673-1.00039 0.89801v1.102z" style="fill-rule:evenodd;opacity:.2"/>
 <path d="m8.82594 15c-0.53272-0.0091-0.82575-0.5498-0.82575-0.7953v-3.254c0-0.334 0.20793-0.9507 0.99963-0.9507v-1.8333c-0.01755-0.66847 0.85529-1.1667 2.00038-1.1667 1.1451 0 1.9996 0.43759 1.9996 1.1667v1.8333c0.8758 0 1 0.6378 1 0.9507v3.254c0 0.3991-0.3714 0.8043-0.8784 0.7951zm3.17386-5v-1.10201c0-0.62746-0.3568-0.89104-0.9996-0.898-0.6428-0.00707-1.00039 0.22673-1.00039 0.898v1.10201z" style="fill-rule:evenodd;fill:#af47e5"/>
 <path d="m4.72253 1h12.54397c3.2653 0.47141 3.6851 3.30065 3.73 4.19689-0.3939-1.53307-1.2962-3.41809-3.4507-3.42523l-13.07477-0.04332c-2.01542 0.44649-3.04763 1.74933-3.47102 3.46855 0.04724-1.64061 0.95638-3.75916 3.72252-4.19689z" style="fill-rule:evenodd;fill:#ffffff;opacity:.2"/>
</svg>

<?xml version="1.0" encoding="UTF-8" standalone="no"?>
<svg
   width="22"
   height="22"
   version="1.1"
   id="svg6"
   sodipodi:docname="enteauth@22x22.svg"
   inkscape:version="1.4 (1:1.4+202410161351+e7c3feb100)"
   xmlns:inkscape="http://www.inkscape.org/namespaces/inkscape"
   xmlns:sodipodi="http://sodipodi.sourceforge.net/DTD/sodipodi-0.dtd"
   xmlns="http://www.w3.org/2000/svg"
   xmlns:svg="http://www.w3.org/2000/svg">
  <defs
     id="defs6" />
  <sodipodi:namedview
     id="namedview6"
     pagecolor="#ffffff"
     bordercolor="#999999"
     borderopacity="1"
     inkscape:showpageshadow="2"
     inkscape:pageopacity="0"
     inkscape:pagecheckerboard="0"
     inkscape:deskcolor="#d1d1d1"
     inkscape:zoom="22.909091"
     inkscape:cx="10.978175"
     inkscape:cy="11.021825"
     inkscape:window-width="1366"
     inkscape:window-height="708"
     inkscape:window-x="0"
     inkscape:window-y="32"
     inkscape:window-maximized="1"
     inkscape:current-layer="svg6" />
  <g
     id="g6">
    <rect
       x="1"
       y="1.5"
       width="19.999989"
       height="19.999989"
       ry="4.1533189"
       style="opacity:0.2"
       id="rect1" />
    <rect
       x="1"
       y="1"
       width="19.999989"
       height="19.999989"
       ry="4.1533189"
       style="fill:#af47e5"
       id="rect2" />
    <path
       d="M 4.00001,6.64658 7.47916,5.13417 C 9.39271,4.30233 10.9598,3.62188 11,3.622 c 0.0403,1.8e-4 1.6562,0.68652 3.5524,1.51217 L 18,6.64658 v 5.41112 c 0,5.257 -5.6979,8.035 -7,8.035 -1.30209,0 -6.99999,-2.9678 -6.99999,-8.035 z"
       style="opacity:0.2;fill-rule:evenodd"
       id="path2" />
    <path
       d="m4.00001 6.14639 3.47915-1.51241c1.91355-0.83183 3.48064-1.51229 3.52084-1.51217 0.0403 1.8e-4 1.6562 0.68652 3.5524 1.51217l3.4476 1.51241v5.41111c0 5.2571-5.6979 8.035-7 8.035-1.30209 0-6.99999-2.9678-6.99999-8.035z"
       style="fill-rule:evenodd;fill:#ececec"
       id="path3" />
    <path
       d="M 8.82594,15.3 C 8.29322,15.2909 8.00019,14.7502 8.00019,14.5047 v -3.254 c 0,-0.334 0.20793,-0.9507 0.99963,-0.9507 V 8.4667 C 8.98227,7.79823 9.85511,7.3 11.0002,7.3 c 1.1451,0 1.9996,0.43759 1.9996,1.1667 V 10.3 c 0.8758,0 1,0.6378 1,0.9507 v 3.254 c 0,0.3991 -0.3714,0.8043 -0.8784,0.7951 z m 3.17386,-5 V 9.198 C 11.9998,8.57053 11.643,8.30695 11.0002,8.29999 10.3574,8.29292 9.99981,8.52672 9.99981,9.198 V 10.3 Z"
       style="opacity:0.2;fill-rule:evenodd"
       id="path4" />
    <path
       d="m8.82594 15c-0.53272-0.0091-0.82575-0.5498-0.82575-0.7953v-3.254c0-0.334 0.20793-0.9507 0.99963-0.9507v-1.8333c-0.01755-0.66847 0.85529-1.1667 2.00038-1.1667 1.1451 0 1.9996 0.43759 1.9996 1.1667v1.8333c0.8758 0 1 0.6378 1 0.9507v3.254c0 0.3991-0.3714 0.8043-0.8784 0.7951zm3.17386-5v-1.10201c0-0.62746-0.3568-0.89104-0.9996-0.898-0.6428-0.00707-1.00039 0.22673-1.00039 0.898v1.10201z"
       style="fill-rule:evenodd;fill:#af47e5"
       id="path5" />
    <path
       d="m4.72253 1h12.54397c3.2653 0.47141 3.6851 3.30065 3.73 4.19689-0.3939-1.53307-1.2962-3.41809-3.4507-3.42523l-13.07477-0.04332c-2.01542 0.44649-3.04763 1.74933-3.47102 3.46855 0.04724-1.64061 0.95638-3.75916 3.72252-4.19689z"
       style="fill-rule:evenodd;fill:#ffffff;opacity:.2"
       id="path6" />
  </g>
</svg>
